X: 486
T: Bûselik`ten Etse Üftâde
C: Ahmet Avni Konuk
O: Turkey
F: http://compmusic.upf.edu/node/140
N: buselikasiran--kupe--aksaksemai--buselikten--ahmet_avni_konuk
N: makam= buselikasiran
N: form= kupe
N: usul= aksaksemai = 10/8
M: 10/8
L: 1/16
K: C    
Q: 1/4=102
%%MIDI tuningsystem comma53
A4 B2c2 {d}cBBA A^GA4z2  | c4 c2G4A2 B2c4z2  | \
w:  Bû se lik *  *  *  *  *  *  *  ten   |  et se  üf *  *  tâ  | 
d2d2 e2e2 ded2 g2g^3/4f _3/4edc2  | 
w:  de  *  ni yâz  *  *  *  *  ol   | 
c4 cBA2 ABc3/2B/ A^GA4z2  | d2d2 e2e2 ded2 g2g3/2^3/4f/ _3/4edc2  | 
w:  dik  çı *  kar    |  Gi *  de rek  *  *  *  *  yum  | 
c4 c2c2 B2B2 A2A2 BAG2  | AAA2 B2A2 G2G2 ^3/4F2AG FED2  | 
w:  şar  ve rir  *  *  *  son  |  ra  *  *  A şî *  *  *  rân  | 
AAA2 G2G3^3/4FFE FEE4z2  | |


